verifying/KDE Plasma/darktable_under_cm-shim_kwin_icc.ti3
CTI3

DESCRIPTOR "Spot measurements from spotread logfile"
ORIGINATOR "spotlog2ti3"
CREATED "Mon Sep 21 00:34:45 2026"
KEYWORD "SOURCE_LOG"
SOURCE_LOG "darktable_under_cm-shim_kwin_icc"
KEYWORD "DEVICE_CLASS"
DEVICE_CLASS "DISPLAY"
KEYWORD "COLOR_REP"
COLOR_REP "XYZ"

NUMBER_OF_FIELDS 4
BEGIN_DATA_FORMAT
SAMPLE_ID XYZ_X XYZ_Y XYZ_Z
END_DATA_FORMAT

NUMBER_OF_SETS 21
BEGIN_DATA
1 0.631658 0.663463 0.778657
2 3.720536 3.910937 4.583841
3 16.014466 16.732086 19.474033
4 38.660526 40.232775 46.654748
5 57.854593 60.203196 70.026985
6 72.990822 75.869773 87.788856
7 27.177587 14.183563 2.026773
8 10.504587 30.449291 3.770298
9 9.659656 4.067672 49.700227
10 35.858235 43.206364 5.346269
11 36.449103 17.831699 50.428986
12 19.375248 33.670317 52.896055
13 48.005322 42.973495 31.868349
14 20.672896 22.246902 51.491447
15 8.085089 12.800912 6.416782
16 23.922046 20.050844 5.558203
17 16.389228 10.369579 22.173595
18 10.214102 17.273596 23.190495
19 41.224196 21.747064 2.236578
20 16.916621 48.942583 5.559517
21 15.379941 6.120862 80.958387
END_DATA
