verifying/KDE Plasma/darktable_selfmanaged_kwin_no_icc.ti3
CTI3

DESCRIPTOR "Spot measurements from spotread logfile"
ORIGINATOR "spotlog2ti3"
CREATED "Mon Sep 21 00:34:27 2026"
KEYWORD "SOURCE_LOG"
SOURCE_LOG "darktable_selfmanaged_kwin_no_icc"
KEYWORD "DEVICE_CLASS"
DEVICE_CLASS "DISPLAY"
KEYWORD "COLOR_REP"
COLOR_REP "XYZ"

NUMBER_OF_FIELDS 4
BEGIN_DATA_FORMAT
SAMPLE_ID XYZ_X XYZ_Y XYZ_Z
END_DATA_FORMAT

NUMBER_OF_SETS 21
BEGIN_DATA
1 0.629162 0.661754 0.781316
2 3.707265 3.870175 4.610894
3 16.156194 16.889047 19.532627
4 38.759077 40.269384 46.654694
5 57.969972 60.423787 70.120287
6 72.872225 75.832225 87.697449
7 27.471948 14.276907 2.011752
8 10.625262 30.724902 3.937429
9 9.700791 4.107080 49.927195
10 35.892358 43.386315 5.465964
11 36.596351 17.939455 50.681826
12 19.452212 33.857113 53.263793
13 48.237674 43.120093 31.884693
14 20.705093 22.269146 51.766151
15 8.115999 12.882477 6.332305
16 23.924380 20.109035 5.494992
17 16.471785 10.435180 22.359631
18 10.396573 17.484762 23.664494
19 41.952387 22.217592 2.253031
20 16.855939 49.207969 5.434256
21 15.455615 6.153517 81.222682
END_DATA
